svg/input_flow.svg

<svg width="24" height="24" viewBox="0 0 24 24" xmlns="http://www.w3.org/2000/svg">
<path d="M19 4H9V5.03663C10.1861 5.1866 10.8829 5.7673 11.4283 6.22187L11.4402 6.23176C12.0072 6.70425 12.372 6.99999 13.2 7C13.5244 7 13.7778 6.9546 14 6.87096V5L17 8L14 11V8.93331C13.7563 8.97591 13.4907 9 13.2 9C11.6378 8.99998 10.8033 8.30448 10.1717 7.77811L10.1598 7.76821C9.59284 7.29573 9.228 7 8.4 7C7.572 7 7.20717 7.29573 6.64018 7.76822L6.62831 7.77812C5.99672 8.30449 5.16219 9 3.6 9C2.9549 9 2.43388 8.8814 2 8.70508V6.36411C2.48227 6.75883 2.85228 7 3.6 7C4.428 7 4.79283 6.70427 5.35982 6.23178L5.37169 6.22188C5.78135 5.88046 6.27639 5.46789 7 5.2201V4C7 2.89543 7.89543 2 9 2H19C20.1046 2 21 2.89543 21 4V20C21 21.1046 20.1046 22 19 22H9C7.89543 22 7 21.1046 7 20V17.4773C7.39493 17.1776 7.75842 17 8.4 17C8.63131 17 8.82648 17.0231 9 17.0666V20H19V4Z" />
<path d="M8.4 9C8.63131 9 8.82648 9.02308 9 9.06664V13.0366C10.1861 13.1866 10.8829 13.7673 11.4283 14.2219L11.4402 14.2318C12.0072 14.7043 12.372 15 13.2 15C13.5244 15 13.7778 14.9546 14 14.871V13L17 16L14 19V16.9333C13.7563 16.9759 13.4907 17 13.2 17C11.6378 17 10.8033 16.3045 10.1717 15.7781L10.1598 15.7682C9.59284 15.2957 9.228 15 8.4 15C7.572 15 7.20717 15.2957 6.64018 15.7682L6.62831 15.7781C5.99672 16.3045 5.16219 17 3.6 17C2.9549 17 2.43388 16.8814 2 16.7051V14.3641C2.48227 14.7588 2.85228 15 3.6 15C4.428 15 4.79283 14.7043 5.35982 14.2318L5.37169 14.2219C5.78135 13.8805 6.27639 13.4679 7 13.2201V9.47732C7.39493 9.17756 7.75842 9 8.4 9Z" />
</svg>

<svg width="24" height="24" viewBox="0 0 24 24" xmlns="http://www.w3.org/2000/svg"><path d="M19 4H9v1.037c1.186.15 1.883.73 2.428 1.185l.012.01c.567.472.932.768 1.76.768.324 0 .578-.045.8-.129V5l3 3-3 3V8.933c-.244.043-.51.067-.8.067-1.562 0-2.397-.696-3.028-1.222l-.012-.01C9.593 7.296 9.228 7 8.4 7s-1.193.296-1.76.768l-.012.01C5.997 8.304 5.162 9 3.6 9A4.18 4.18 0 0 1 2 8.705v-2.34c.482.394.852.635 1.6.635.828 0 1.193-.296 1.76-.768l.012-.01c.41-.342.904-.754 1.628-1.002V4a2 2 0 0 1 2-2h10a2 2 0 0 1 2 2v16a2 2 0 0 1-2 2H9a2 2 0 0 1-2-2v-2.523c.395-.3.758-.477 1.4-.477.231 0 .426.023.6.067V20h10V4z"/><path d="M8.4 9c.231 0 .426.023.6.067v3.97c1.186.15 1.883.73 2.428 1.185l.012.01c.567.472.932.768 1.76.768.324 0 .578-.045.8-.129V13l3 3-3 3v-2.067c-.244.043-.51.067-.8.067-1.562 0-2.397-.695-3.028-1.222l-.012-.01C9.593 15.296 9.228 15 8.4 15s-1.193.296-1.76.768l-.012.01C5.997 16.305 5.162 17 3.6 17a4.181 4.181 0 0 1-1.6-.295v-2.34c.482.394.852.635 1.6.635.828 0 1.193-.296 1.76-.768l.012-.01c.41-.341.904-.754 1.628-1.002V9.477c.395-.3.758-.477 1.4-.477z"/></svg>
